packages/icon/src/svg/org.icon.svg

<svg viewBox="0 0 24 24" xmlns="http://www.w3.org/2000/svg"><path d="M21 16.159v-2.184c0-1.654-1.346-3-3-3h-5v-3h6c.552 0 1-.447 1-1v-4c0-.552-.448-1-1-1H5c-.552 0-1 .448-1 1v4c0 .553.448 1 1 1h6v3H6c-1.654 0-3 1.346-3 3v2.184c-1.161.414-2 1.514-2 2.816 0 1.654 1.346 3 3 3s3-1.346 3-3c0-1.302-.838-2.401-2-2.816v-2.184c0-.551.449-1 1-1h5v3.184c-1.161.414-2 1.514-2 2.816 0 1.654 1.346 3 3 3s3-1.346 3-3c0-1.302-.838-2.401-2-2.816v-3.184h5c.552 0 1 .449 1 1v2.184c-1.161.414-2 1.514-2 2.816 0 1.654 1.346 3 3 3s3-1.346 3-3c0-1.302-.838-2.402-2-2.816zM6 3.975h12v2H6v-2zm-2 16c-.551 0-1-.448-1-1 0-.551.449-1 1-1 .552 0 1 .449 1 1 0 .551-.448 1-1 1zm8 0c-.551 0-1-.448-1-1 0-.551.449-1 1-1 .552 0 1 .449 1 1 0 .551-.448 1-1 1zm8 0c-.552 0-1-.448-1-1 0-.551.448-1 1-1s1 .449 1 1c0 .551-.448 1-1 1z" /></svg>

<?xml version="1.0" encoding="UTF-8"?>
<svg width="24px" height="24px" viewBox="0 0 24 24" version="1.1" xmlns="http://www.w3.org/2000/svg" xmlns:xlink="http://www.w3.org/1999/xlink">
    <!-- Generator: Sketch 46.1 (44463) - http://www.bohemiancoding.com/sketch -->
    <title>Icon/org.icon</title>
    <desc>Created with Sketch.</desc>
    <defs>
        <path d="M21,16.159 L21,13.975 C21,12.321 19.654,10.975 18,10.975 L13,10.975 L13,7.975 L19,7.975 C19.552,7.975 20,7.528 20,6.975 L20,2.975 C20,2.423 19.552,1.975 19,1.975 L5,1.975 C4.448,1.975 4,2.423 4,2.975 L4,6.975 C4,7.528 4.448,7.975 5,7.975 L11,7.975 L11,10.975 L6,10.975 C4.346,10.975 3,12.321 3,13.975 L3,16.159 C1.839,16.573 1,17.673 1,18.975 C1,20.629 2.346,21.975 4,21.975 C5.654,21.975 7,20.629 7,18.975 C7,17.673 6.162,16.574 5,16.159 L5,13.975 C5,13.424 5.449,12.975 6,12.975 L11,12.975 L11,16.159 C9.839,16.573 9,17.673 9,18.975 C9,20.629 10.346,21.975 12,21.975 C13.654,21.975 15,20.629 15,18.975 C15,17.673 14.162,16.574 13,16.159 L13,12.975 L18,12.975 C18.552,12.975 19,13.424 19,13.975 L19,16.159 C17.839,16.573 17,17.673 17,18.975 C17,20.629 18.346,21.975 20,21.975 C21.654,21.975 23,20.629 23,18.975 C23,17.673 22.162,16.573 21,16.159 Z M6,3.975 L18,3.975 L18,5.975 L6,5.975 L6,3.975 Z M4,19.975 C3.449,19.975 3,19.527 3,18.975 C3,18.424 3.449,17.975 4,17.975 C4.552,17.975 5,18.424 5,18.975 C5,19.526 4.552,19.975 4,19.975 Z M12,19.975 C11.449,19.975 11,19.527 11,18.975 C11,18.424 11.449,17.975 12,17.975 C12.552,17.975 13,18.424 13,18.975 C13,19.526 12.552,19.975 12,19.975 Z M20,19.975 C19.448,19.975 19,19.527 19,18.975 C19,18.424 19.448,17.975 20,17.975 C20.552,17.975 21,18.424 21,18.975 C21,19.526 20.552,19.975 20,19.975 Z" id="path-1"></path>
    </defs>
    <g id="Symbols" stroke="none" stroke-width="1" fill="none" fill-rule="evenodd">
        <g id="Icon/org">
            <mask id="mask-2" fill="white">
                <use xlink:href="#path-1"></use>
            </mask>
            <use id="Shape" fill="#000000" fill-rule="nonzero" xlink:href="#path-1"></use>
            <g id="Color/Neutral/White" mask="url(#mask-2)" fill="#FFFFFF">
                <rect id="222222-Fill" x="0" y="0" width="24" height="24"></rect>
            </g>
        </g>
    </g>
</svg>
